src/images/session-recording-2.svg

<svg xmlns="http://www.w3.org/2000/svg" width="402" height="402" fill="none" viewBox="0 0 402 402"><rect width="401.952" height="401.03" fill="#F96132" rx="20"/><path fill="#fff" fill-rule="evenodd" d="M84.1035 97.5848L60.3102 115.789L57.5812 112.221L81.3788 94.0163L84.1035 97.5848Z" clip-rule="evenodd"/><path fill="#fff" fill-rule="evenodd" d="M45.4505 140.313L35.1127 168.423L30.8955 166.873L41.2421 138.754L45.4505 140.313Z" clip-rule="evenodd"/><path fill="#fff" fill-rule="evenodd" d="M30.8513 202.717L32.4896 232.624L28.003 232.867L26.3647 202.964L30.8513 202.717Z" clip-rule="evenodd"/><path fill="#fff" fill-rule="evenodd" d="M37.3914 262.589L49.5176 289.971L45.4108 291.791L33.2845 264.409L37.3914 262.589Z" clip-rule="evenodd"/><path fill="#fff" fill-rule="evenodd" d="M67.654 312.04L89.4114 332.633L86.3202 335.897L64.5584 315.321L67.654 312.04Z" clip-rule="evenodd"/><path fill="#fff" fill-rule="evenodd" d="M151.968 399.833L152.538 369.89L148.047 369.801L147.459 399.762L151.968 399.833Z" clip-rule="evenodd"/><path fill="#fff" fill-rule="evenodd" d="M155.505 348.841L157.408 318.942L152.922 318.66L151.023 348.55L155.505 348.841Z" clip-rule="evenodd"/><path fill="#fff" fill-rule="evenodd" d="M166.784 291.976L180.08 265.138L176.053 263.142L162.756 289.98L166.784 291.976Z" clip-rule="evenodd"/><path fill="#F78301" fill-rule="evenodd" d="M229.23 180.069C238.662 185.921 241.842 197.876 236.322 206.775C230.802 215.674 218.684 218.139 209.247 212.287C199.81 206.435 196.635 194.476 202.155 185.568C207.675 176.66 219.793 174.218 229.23 180.069Z" clip-rule="evenodd"/><path fill="#F7A501" fill-rule="evenodd" d="M215.465 202.001C215.465 202.001 230.541 194.052 240.278 196.392C250.016 198.733 254.409 211.307 254.409 211.307C254.409 211.307 239.06 235.363 234.569 242.605C223.785 259.993 200.782 265.239 183.184 254.322C165.587 243.405 160.062 220.466 170.82 203.092C176.759 193.522 190.603 171.59 190.603 171.59C190.603 171.59 203.997 169.824 210.206 177.437C216.415 185.051 215.465 202.001 215.465 202.001Z" clip-rule="evenodd"/><path fill="#F9CC69" fill-rule="evenodd" d="M215.598 201.67L183.321 253.995C183.321 253.995 149.901 237.213 170.957 202.765C176.834 193.155 190.74 171.259 190.74 171.259C190.74 171.259 204.134 169.492 210.343 177.106C216.551 184.72 215.598 201.67 215.598 201.67Z" clip-rule="evenodd"/><path fill="#F9CC69" fill-rule="evenodd" d="M242.018 160.717C242.018 160.717 249.658 164.974 250.651 171.709C251.093 174.739 250.952 178.378 249.826 181.35C248.914 183.657 247.618 185.792 245.993 187.666C246.099 188.386 219.753 172.588 215.319 169.925C215.068 169.77 214.935 169.21 214.935 169.21C215.122 168.804 215.353 168.421 215.624 168.066C218.534 163.777 228.117 152.189 242.018 160.717Z" clip-rule="evenodd"/><path fill="#F7A501" fill-rule="evenodd" d="M242.049 160.514C242.049 160.514 245.215 162.722 246.368 163.95C252.082 169.952 251.146 177.345 249.34 182.498L247.132 187.008C246.633 188.037 245.529 188.439 244.672 187.891L230.612 179.195L242.049 160.514Z" clip-rule="evenodd"/><path fill="#F7A501" fill-rule="evenodd" d="M257.275 159.953L255.509 169.037L249.419 172.208L248.386 169.642L253.442 167.019L254.922 159.14C254.922 159.14 255.761 158.363 256.352 158.562C256.944 158.76 257.275 159.953 257.275 159.953Z" clip-rule="evenodd"/><path fill="#F9CC69" fill-rule="evenodd" d="M233.769 146.373L227.516 153.191L228.598 159.953L231.274 159.255L230.369 153.673L235.818 147.786C235.818 147.786 235.942 146.651 235.43 146.293C234.917 145.935 233.769 146.373 233.769 146.373Z" clip-rule="evenodd"/><path fill="#F9CC69" fill-rule="evenodd" d="M164.964 177.87L178.976 171.833L189.062 177.252L186.496 181.085L178.199 176.603L164.792 182.344L159.175 177.68C159.175 177.68 158.164 176.598 159.038 175.472C159.278 175.151 159.606 174.905 159.982 174.766C160.358 174.626 160.766 174.599 161.158 174.686L164.964 177.87Z" clip-rule="evenodd"/><path fill="#F7A501" fill-rule="evenodd" d="M261.263 235.738L260.446 220.497L251.106 213.872L248.81 217.874L256.534 223.315L257.364 237.889L264.036 240.852C264.036 240.852 265.454 241.294 266.076 239.991C266.256 239.632 266.328 239.23 266.285 238.831C266.242 238.433 266.086 238.055 265.834 237.743L261.263 235.738Z" clip-rule="evenodd"/><path fill="#F9CC69" fill-rule="evenodd" d="M154.944 193.482L168.956 187.445L179.042 192.864L176.477 196.702L168.179 192.215L154.772 197.956L149.155 193.292C149.155 193.292 148.139 192.215 149.018 191.084C149.259 190.764 149.587 190.52 149.963 190.381C150.339 190.242 150.747 190.215 151.138 190.302L154.944 193.482Z" clip-rule="evenodd"/><path fill="#F7A501" fill-rule="evenodd" d="M249.711 251.253L248.89 236.012L239.554 229.387L237.258 233.388L244.959 238.829L245.79 253.403L252.466 256.362C252.466 256.362 253.88 256.804 254.502 255.501C254.683 255.143 254.756 254.741 254.714 254.342C254.672 253.943 254.515 253.565 254.264 253.253L249.711 251.253Z" clip-rule="evenodd"/><path fill="#F9CC69" fill-rule="evenodd" d="M145.287 209.324L159.303 203.286L169.389 208.705L166.823 212.543L158.526 208.056L145.114 213.797L139.511 209.12C139.511 209.12 138.499 208.038 139.374 206.912C139.615 206.592 139.944 206.347 140.32 206.208C140.697 206.069 141.106 206.04 141.498 206.126L145.287 209.324Z" clip-rule="evenodd"/><path fill="#F7A501" fill-rule="evenodd" d="M239.947 266.034L239.13 250.793L229.79 244.169L227.494 248.174L235.2 253.615L236.03 268.189L242.703 271.153C242.703 271.153 244.12 271.594 244.743 270.27C244.922 269.911 244.995 269.509 244.952 269.11C244.909 268.711 244.752 268.334 244.5 268.022L239.947 266.034Z" clip-rule="evenodd"/><path fill="#F78301" fill-rule="evenodd" d="M218.932 206.515L201.988 233.843L193.059 228.305L210.007 200.981L218.932 206.515Z" clip-rule="evenodd"/><path fill="#F78301" fill-rule="evenodd" d="M195.425 234.148C196.349 234.695 197.088 235.504 197.55 236.473C198.011 237.442 198.173 238.526 198.016 239.588C197.859 240.65 197.389 241.64 196.666 242.433C195.943 243.227 195.001 243.787 193.958 244.042C192.916 244.297 191.821 244.236 190.814 243.867C189.807 243.497 188.932 242.836 188.302 241.967C187.672 241.098 187.315 240.062 187.276 238.989C187.238 237.917 187.52 236.857 188.086 235.946C188.449 235.345 188.927 234.821 189.493 234.406C190.059 233.99 190.701 233.69 191.383 233.523C192.065 233.356 192.773 233.325 193.466 233.433C194.16 233.54 194.826 233.783 195.425 234.148Z" clip-rule="evenodd"/><path fill="#F7A501" fill-rule="evenodd" d="M214.476 203.768L197.501 231.149L192.983 228.345L209.958 200.963L214.476 203.768Z" clip-rule="evenodd"/><path fill="#F7A501" fill-rule="evenodd" d="M195.593 234.148L189.852 243.493C189.852 243.493 188.135 242.658 187.38 239.96C186.858 238.118 187.967 236.157 187.967 236.157C188.314 235.503 188.792 234.927 189.372 234.465C189.951 234.004 190.62 233.667 191.336 233.477C192.055 233.3 192.801 233.268 193.532 233.383C194.263 233.498 194.964 233.758 195.593 234.148Z" clip-rule="evenodd"/><path fill="#F78301" fill-rule="evenodd" d="M168.956 51.31C173.628 61.3837 169.716 73.1181 160.221 77.5256C150.727 81.9331 139.241 77.3357 134.569 67.2619C129.897 57.1882 133.809 45.4495 143.304 41.0463C152.798 36.6432 164.284 41.223 168.956 51.31Z" clip-rule="evenodd"/><path fill="#F7A501" fill-rule="evenodd" d="M145.397 62.0595C145.397 62.0595 162.354 63.7068 169.217 71.0027C176.079 78.2985 172.838 91.2297 172.838 91.2297C172.838 91.2297 146.784 102.898 139.069 106.484C120.522 115.091 98.4067 106.842 89.694 88.0587C80.9813 69.2759 88.9609 47.0615 107.521 38.454C117.74 33.7152 141.352 22.9966 141.352 22.9966C141.352 22.9966 153.509 28.8793 154.525 38.6439C155.54 48.4085 145.397 62.0595 145.397 62.0595Z" clip-rule="evenodd"/><path fill="#F9CC69" fill-rule="evenodd" d="M145.693 61.8608L89.9855 87.86C89.9855 87.86 71.2618 55.5012 107.813 38.2596C118 33.4546 141.648 22.8023 141.648 22.8023C141.648 22.8023 153.805 28.6893 154.816 38.454C155.827 48.2186 145.693 61.8608 145.693 61.8608Z" clip-rule="evenodd"/><path fill="#F9CC69" fill-rule="evenodd" d="M190.272 42.1504C190.272 42.1504 194.317 49.9012 191.447 56.0753C190.157 58.8532 188.038 61.8166 185.467 63.6803C183.444 65.1066 181.194 66.1802 178.813 66.8557C178.503 67.5137 165.163 39.8407 162.915 35.1814C162.856 34.91 162.879 34.627 162.981 34.3688C163.362 34.1352 163.766 33.9413 164.187 33.7902C168.969 31.8073 183.335 27.3909 190.272 42.1504Z" clip-rule="evenodd"/><path fill="#F7A501" fill-rule="evenodd" d="M190.409 41.9959C190.409 41.9959 191.835 45.5953 192.131 47.2382C193.61 55.3908 188.766 61.057 184.416 64.3869L180.106 66.9484C179.122 67.5314 177.982 67.262 177.558 66.3478L170.59 51.3321L190.409 41.9959Z" clip-rule="evenodd"/><path fill="#F7A501" fill-rule="evenodd" d="M203.454 49.8747L197.002 56.4993L190.17 55.8059L190.736 53.1031L196.357 53.6861L201.921 47.9094C201.921 47.9094 203.052 47.7239 203.436 48.2142C203.82 48.7044 203.454 49.8747 203.454 49.8747Z" clip-rule="evenodd"/><path fill="#F9CC69" fill-rule="evenodd" d="M191.252 25.6288L182.284 27.9032L179.466 34.1612L182.085 35.0445L184.394 29.8818L192.18 27.9562C192.18 27.9562 192.908 27.0729 192.674 26.4944C192.44 25.9158 191.252 25.6288 191.252 25.6288Z" clip-rule="evenodd"/><path fill="#F9CC69" fill-rule="evenodd" d="M116.455 14.1639L131.469 16.8137L136.918 26.8786L132.67 28.6761L128.214 20.3954L113.863 17.8162L111.73 10.8339C111.73 10.8339 111.478 9.3765 112.829 8.91278C113.208 8.77658 113.617 8.75248 114.009 8.84335C114.4 8.93423 114.758 9.13622 115.037 9.42508L116.455 14.1639Z" clip-rule="evenodd"/><path fill="#F7A501" fill-rule="evenodd" d="M165.158 115.414L172.842 102.226L168.656 91.5609L164.54 93.6454L167.989 102.425L160.707 115.047L164.682 121.186C164.682 121.186 165.631 122.321 166.854 121.588C167.202 121.388 167.485 121.093 167.668 120.736C167.852 120.379 167.928 119.977 167.887 119.578L165.158 115.414Z" clip-rule="evenodd"/><path fill="#F9CC69" fill-rule="evenodd" d="M99.5063 21.7202L114.521 24.3701L119.97 34.4394L115.722 36.2369L111.248 27.9032L96.8965 25.324L94.7635 18.3417C94.7635 18.3417 94.5118 16.8843 95.8631 16.425C96.2409 16.2877 96.6504 16.2626 97.0421 16.3527C97.4339 16.4428 97.7912 16.6443 98.0711 16.9329L99.5063 21.7202Z" clip-rule="evenodd"/><path fill="#F7A501" fill-rule="evenodd" d="M146.982 122.034L154.666 108.847L150.502 98.181L146.386 100.266L149.835 109.045L142.535 121.667L146.488 127.806C146.488 127.806 147.437 128.941 148.66 128.208C149.008 128.008 149.291 127.713 149.475 127.356C149.66 127 149.737 126.598 149.698 126.199L146.982 122.034Z" clip-rule="evenodd"/><path fill="#F9CC69" fill-rule="evenodd" d="M82.7433 29.6432L97.7576 32.293L103.211 42.3624L98.9587 44.1598L94.4986 35.8526L80.1511 33.2735L78.0138 26.2912C78.0138 26.2912 77.7621 24.8338 79.1134 24.3745C79.4912 24.2372 79.9006 24.2121 80.2924 24.3022C80.6841 24.3923 81.0415 24.5938 81.3213 24.8824L82.7433 29.6432Z" clip-rule="evenodd"/><path fill="#F7A501" fill-rule="evenodd" d="M130.709 129.038L138.393 115.851L134.211 105.19L130.096 107.274L133.545 116.054L126.263 128.658L130.237 134.797C130.237 134.797 131.186 135.932 132.41 135.199C132.758 135 133.04 134.704 133.224 134.347C133.407 133.991 133.483 133.589 133.443 133.19L130.709 129.038Z" clip-rule="evenodd"/><path fill="#F78301" fill-rule="evenodd" d="M148.925 75.9313L131.46 68.9755L138.186 51.6324L128.815 48.011L122.142 65.2746L105.552 58.6765L101.838 68.0127L118.517 74.6373L111.977 91.5565L121.348 95.1779L127.857 78.3515L145.229 85.2631L148.925 75.9313Z" clip-rule="evenodd"/><path fill="#F7A501" fill-rule="evenodd" d="M131.637 68.6708L118.389 74.7168L101.719 68.0922L105.459 58.3232L122.072 65.3143L128.974 47.9536L138.128 51.5882L131.637 68.6708Z" clip-rule="evenodd"/><path fill-rule="evenodd" stroke="#35416B" stroke-linecap="round" stroke-linejoin="round" stroke-width="27.612" d="M209.539 110.163C263.621 110.163 307.458 153.682 307.458 207.363C307.458 261.044 263.599 304.563 209.539 304.563C155.479 304.563 111.624 261.044 111.624 207.363C111.624 153.682 155.461 110.163 209.539 110.163Z" clip-rule="evenodd"/><path fill="#35416B" fill-rule="evenodd" d="M232.617 400.151L232.617 315.039C232.617 313.714 228.744 312.663 223.966 312.663L196.662 312.663C191.884 312.663 188.011 313.727 188.011 315.039L188.011 400.151L232.617 400.151Z" clip-rule="evenodd"/><path fill-rule="evenodd" stroke="#6977AB" stroke-linecap="round" stroke-linejoin="round" stroke-width="5.518" d="M210.002 123C256.391 123 294 160.364 294 206.5C294 252.636 256.391 290 210.002 290C163.614 290 126 252.617 126 206.5C126 160.383 163.609 123 210.002 123Z" clip-rule="evenodd"/><path stroke="#1C2234" stroke-linecap="square" stroke-linejoin="round" stroke-width="5.518" d="M191.69 325.209C198.574 325.24 204.279 328.946 210.921 328.685C217.563 328.425 223.869 324.914 228.739 324.763"/><path stroke="#1C2234" stroke-linecap="square" stroke-linejoin="round" stroke-width="5.518" d="M192.025 337.222C198.91 337.253 204.615 340.958 211.257 340.693C217.898 340.428 224.204 336.922 229.075 336.771"/></svg>

<svg fill="none" viewBox="0 0 402 402"><rect width="401.952" height="401.03" fill="#F96132" rx="20"/><path fill="#fff" fill-rule="evenodd" d="M84.103 97.585L60.31 115.789l-2.729-3.568L81.38 94.016l2.724 3.569zm-38.652 42.728l-10.338 28.11-4.218-1.55 10.347-28.119 4.209 1.559zm-14.6 62.404l1.639 29.907-4.487.243-1.638-29.903 4.486-.247zm6.54 59.872l12.127 27.382-4.107 1.82-12.127-27.382 4.107-1.82zm30.263 49.451l21.757 20.593-3.09 3.264-21.763-20.576 3.096-3.281zm84.314 87.793l.57-29.943-4.491-.089-.588 29.961 4.509.071zm3.537-50.992l1.903-29.899-4.486-.282-1.899 29.89 4.482.291zm11.279-56.865l13.296-26.838-4.027-1.996-13.297 26.838 4.028 1.996z" clip-rule="evenodd"/><path fill="#F78301" fill-rule="evenodd" d="M229.23 180.069c9.432 5.852 12.612 17.807 7.092 26.706-5.52 8.899-17.638 11.364-27.075 5.512-9.437-5.852-12.612-17.811-7.092-26.719 5.52-8.908 17.638-11.35 27.075-5.499z" clip-rule="evenodd"/><path fill="#F7A501" fill-rule="evenodd" d="M215.465 202.001s15.076-7.949 24.813-5.609c9.738 2.341 14.131 14.915 14.131 14.915s-15.349 24.056-19.84 31.298c-10.784 17.388-33.787 22.634-51.385 11.717-17.597-10.917-23.122-33.856-12.364-51.23 5.939-9.57 19.783-31.502 19.783-31.502s13.394-1.766 19.603 5.847c6.209 7.614 5.259 24.564 5.259 24.564z" clip-rule="evenodd"/><path fill="#F9CC69" fill-rule="evenodd" d="M215.598 201.67l-32.277 52.325s-33.42-16.782-12.364-51.23c5.877-9.61 19.783-31.506 19.783-31.506s13.394-1.767 19.603 5.847c6.208 7.614 5.255 24.564 5.255 24.564zm26.42-40.953s7.64 4.257 8.633 10.992c.442 3.03.301 6.669-.825 9.641a21.968 21.968 0 01-3.833 6.316c.106.72-26.24-15.078-30.674-17.741-.251-.155-.384-.715-.384-.715.187-.406.418-.789.689-1.144 2.91-4.289 12.493-15.877 26.394-7.349z" clip-rule="evenodd"/><path fill="#F7A501" fill-rule="evenodd" d="M242.049 160.514s3.166 2.208 4.319 3.436c5.714 6.002 4.778 13.395 2.972 18.548l-2.208 4.51c-.499 1.029-1.603 1.431-2.46.883l-14.06-8.696 11.437-18.681z" clip-rule="evenodd"/><path fill="#F7A501" fill-rule="evenodd" d="M257.275 159.953l-1.766 9.084-6.09 3.171-1.033-2.566 5.056-2.623 1.48-7.879s.839-.777 1.43-.578c.592.198.923 1.391.923 1.391z" clip-rule="evenodd"/><path fill="#F9CC69" fill-rule="evenodd" d="M233.769 146.373l-6.253 6.818 1.082 6.762 2.676-.698-.905-5.582 5.449-5.887s.124-1.135-.388-1.493c-.513-.358-1.661.08-1.661.08zm-68.805 31.497l14.012-6.037 10.086 5.419-2.566 3.833-8.297-4.482-13.407 5.741-5.617-4.664s-1.011-1.082-.137-2.208a2.081 2.081 0 012.12-.786l3.806 3.184z" clip-rule="evenodd"/><path fill="#F7A501" fill-rule="evenodd" d="M261.263 235.738l-.817-15.241-9.34-6.625-2.296 4.002 7.724 5.441.83 14.574 6.672 2.963s1.418.442 2.04-.861a2.087 2.087 0 00-.242-2.248l-4.571-2.005z" clip-rule="evenodd"/><path fill="#F9CC69" fill-rule="evenodd" d="M154.944 193.482l14.012-6.037 10.086 5.419-2.565 3.838-8.298-4.487-13.407 5.741-5.617-4.664s-1.016-1.077-.137-2.208a2.09 2.09 0 012.12-.782l3.806 3.18z" clip-rule="evenodd"/><path fill="#F7A501" fill-rule="evenodd" d="M249.711 251.253l-.821-15.241-9.336-6.625-2.296 4.001 7.701 5.441.831 14.574 6.676 2.959s1.414.442 2.036-.861a2.083 2.083 0 00-.238-2.248l-4.553-2z" clip-rule="evenodd"/><path fill="#F9CC69" fill-rule="evenodd" d="M145.287 209.324l14.016-6.038 10.086 5.419-2.566 3.838-8.297-4.487-13.412 5.741-5.603-4.677s-1.012-1.082-.137-2.208a2.095 2.095 0 012.124-.786l3.789 3.198z" clip-rule="evenodd"/><path fill="#F7A501" fill-rule="evenodd" d="M239.947 266.034l-.817-15.241-9.34-6.624-2.296 4.005 7.706 5.441.83 14.574 6.673 2.964s1.417.441 2.04-.883a2.095 2.095 0 00-.243-2.248l-4.553-1.988z" clip-rule="evenodd"/><path fill="#F78301" fill-rule="evenodd" d="M218.932 206.515l-16.944 27.328-8.929-5.538 16.948-27.324 8.925 5.534zm-23.507 27.633a5.403 5.403 0 01-1.467 9.894 5.406 5.406 0 01-5.656-2.075 5.405 5.405 0 01-.216-6.021 5.332 5.332 0 017.339-1.798z" clip-rule="evenodd"/><path fill="#F7A501" fill-rule="evenodd" d="M214.476 203.768l-16.975 27.381-4.518-2.804 16.975-27.382 4.518 2.805zm-18.883 30.38l-5.741 9.345s-1.717-.835-2.472-3.533c-.522-1.842.587-3.803.587-3.803a5.397 5.397 0 011.405-1.692 5.363 5.363 0 011.964-.988 5.565 5.565 0 014.257.671z" clip-rule="evenodd"/><path fill="#F78301" fill-rule="evenodd" d="M168.956 51.31c4.672 10.074.76 21.808-8.735 26.216-9.494 4.407-20.98-.19-25.652-10.264-4.672-10.074-.76-21.813 8.735-26.216 9.494-4.403 20.98.177 25.652 10.264z" clip-rule="evenodd"/><path fill="#F7A501" fill-rule="evenodd" d="M145.397 62.06s16.957 1.647 23.82 8.943c6.862 7.296 3.621 20.227 3.621 20.227s-26.054 11.668-33.769 15.254c-18.547 8.607-40.662.358-49.375-18.425-8.713-18.783-.733-40.997 17.827-49.605 10.219-4.739 33.831-15.457 33.831-15.457s12.157 5.882 13.173 15.647c1.015 9.764-9.128 23.416-9.128 23.416z" clip-rule="evenodd"/><path fill="#F9CC69" fill-rule="evenodd" d="M145.693 61.86l-55.708 26s-18.723-32.359 17.828-49.6c10.187-4.805 33.835-15.458 33.835-15.458s12.157 5.887 13.168 15.652c1.011 9.765-9.123 23.407-9.123 23.407zm44.579-19.71s4.045 7.751 1.175 13.925c-1.29 2.778-3.409 5.742-5.98 7.605a21.94 21.94 0 01-6.654 3.176c-.31.658-13.65-27.015-15.898-31.675a1.402 1.402 0 01.066-.812 6.522 6.522 0 011.206-.579c4.782-1.983 19.148-6.4 26.085 8.36z" clip-rule="evenodd"/><path fill="#F7A501" fill-rule="evenodd" d="M190.409 41.996s1.426 3.6 1.722 5.242c1.479 8.153-3.365 13.819-7.715 17.149l-4.31 2.561c-.984.583-2.124.314-2.548-.6l-6.968-15.016 19.819-9.336z" clip-rule="evenodd"/><path fill="#F7A501" fill-rule="evenodd" d="M203.454 49.875l-6.452 6.624-6.832-.693.566-2.703 5.621.583 5.564-5.777s1.131-.185 1.515.305c.384.49.018 1.66.018 1.66z" clip-rule="evenodd"/><path fill="#F9CC69" fill-rule="evenodd" d="M191.252 25.629l-8.968 2.274-2.818 6.258 2.619.883 2.309-5.162 7.786-1.926s.728-.883.494-1.462c-.234-.578-1.422-.865-1.422-.865zm-74.797-11.465l15.014 2.65 5.449 10.065-4.248 1.797-4.456-8.28-14.351-2.58-2.133-6.982s-.252-1.457 1.099-1.921a2.09 2.09 0 012.208.512l1.418 4.739z" clip-rule="evenodd"/><path fill="#F7A501" fill-rule="evenodd" d="M165.158 115.414l7.684-13.188-4.186-10.665-4.116 2.084 3.449 8.78-7.282 12.622 3.975 6.139s.949 1.135 2.172.402a2.075 2.075 0 001.033-2.01l-2.729-4.164z" clip-rule="evenodd"/><path fill="#F9CC69" fill-rule="evenodd" d="M99.506 21.72l15.015 2.65 5.449 10.07-4.248 1.797-4.474-8.334-14.352-2.579-2.133-6.982s-.251-1.458 1.1-1.917a2.084 2.084 0 012.208.508l1.435 4.787z" clip-rule="evenodd"/><path fill="#F7A501" fill-rule="evenodd" d="M146.982 122.034l7.684-13.187-4.164-10.666-4.116 2.085 3.449 8.779-7.3 12.622 3.953 6.139s.949 1.135 2.172.402a2.084 2.084 0 001.038-2.009l-2.716-4.165z" clip-rule="evenodd"/><path fill="#F9CC69" fill-rule="evenodd" d="M82.743 29.643l15.015 2.65 5.453 10.07-4.252 1.797-4.46-8.307-14.348-2.58-2.137-6.982s-.252-1.457 1.1-1.916a2.084 2.084 0 012.207.507l1.422 4.761z" clip-rule="evenodd"/><path fill="#F7A501" fill-rule="evenodd" d="M130.709 129.038l7.684-13.187-4.182-10.661-4.115 2.084 3.449 8.78-7.282 12.604 3.974 6.139s.949 1.135 2.173.402a2.075 2.075 0 001.033-2.009l-2.734-4.152z" clip-rule="evenodd"/><path fill="#F78301" fill-rule="evenodd" d="M148.925 75.931l-17.465-6.956 6.726-17.343-9.371-3.621-6.673 17.264-16.59-6.599-3.714 9.337 16.679 6.624-6.54 16.92 9.371 3.62 6.509-16.826 17.372 6.912 3.696-9.332z" clip-rule="evenodd"/><path fill="#F7A501" fill-rule="evenodd" d="M131.637 68.67l-13.248 6.047-16.67-6.625 3.74-9.769 16.613 6.991 6.902-17.36 9.154 3.634-6.491 17.083z" clip-rule="evenodd"/><path stroke="#35416B" stroke-linecap="round" stroke-linejoin="round" stroke-width="27.612" d="M209.539 110.163c54.082 0 97.919 43.519 97.919 97.2 0 53.681-43.859 97.2-97.919 97.2-54.06 0-97.915-43.519-97.915-97.2 0-53.681 43.837-97.2 97.915-97.2z" clip-rule="evenodd"/><path fill="#35416B" fill-rule="evenodd" d="M232.617 400.151v-85.112c0-1.325-3.873-2.376-8.651-2.376h-27.304c-4.778 0-8.651 1.064-8.651 2.376v85.112h44.606z" clip-rule="evenodd"/><path stroke="#6977AB" stroke-linecap="round" stroke-linejoin="round" stroke-width="5.518" d="M210.002 123C256.391 123 294 160.364 294 206.5S256.391 290 210.002 290C163.614 290 126 252.617 126 206.5s37.609-83.5 84.002-83.5z" clip-rule="evenodd"/><path stroke="#1C2234" stroke-linecap="square" stroke-linejoin="round" stroke-width="5.518" d="M191.69 325.209c6.884.031 12.589 3.737 19.231 3.476 6.642-.26 12.948-3.771 17.818-3.922m-36.714 12.459c6.885.031 12.59 3.736 19.232 3.471 6.641-.265 12.947-3.771 17.818-3.922"/></svg>
